Numix-Light/24x24/status/user-idle-panel.svg

<?xml version="1.0" encoding="UTF-8" standalone="no"?>
<svg
   xmlns:dc="http://purl.org/dc/elements/1.1/"
   xmlns:cc="http://creativecommons.org/ns#"
   xmlns:rdf="http://www.w3.org/1999/02/22-rdf-syntax-ns#"
   xmlns:svg="http://www.w3.org/2000/svg"
   xmlns="http://www.w3.org/2000/svg"
   xmlns:sodipodi="http://sodipodi.sourceforge.net/DTD/sodipodi-0.dtd"
   xmlns:inkscape="http://www.inkscape.org/namespaces/inkscape"
   width="24"
   height="24"
   viewBox="0 0 24 24"
   id="svg3241"
   version="1.1"
   inkscape:version="0.48.5 r10040"
   sodipodi:docname="user-idle-panel.svg">
  <metadata
     id="metadata3257">
    <rdf:RDF>
      <cc:Work
         rdf:about="">
        <dc:format>image/svg+xml</dc:format>
        <dc:type
           rdf:resource="http://purl.org/dc/dcmitype/StillImage" />
      </cc:Work>
    </rdf:RDF>
  </metadata>
  <defs
     id="defs3255" />
  <sodipodi:namedview
     pagecolor="#ffffff"
     bordercolor="#666666"
     borderopacity="1"
     objecttolerance="10"
     gridtolerance="10"
     guidetolerance="10"
     inkscape:pageopacity="0"
     inkscape:pageshadow="2"
     inkscape:window-width="1280"
     inkscape:window-height="998"
     id="namedview3253"
     showgrid="false"
     inkscape:zoom="19.666667"
     inkscape:cx="11.033748"
     inkscape:cy="6.4422958"
     inkscape:window-x="0"
     inkscape:window-y="0"
     inkscape:window-maximized="1"
     inkscape:current-layer="svg3241" />
  <path
     inkscape:connector-curvature="0"
     id="path3249"
     d="m 11.398438,4.363281 c -4.964844,0 -9,3.664063 -9,8.183594 0,4.515625 4.035156,8.179687 9,8.179687 2.359374,0 4.507812,-0.832031 6.113281,-2.179687 l 6.488281,0 -4.011719,-3.648437 c 0.25,-0.75 0.410157,-1.53125 0.410157,-2.351563 0,-4.519531 -4.03125,-8.183594 -9,-8.183594 z m 0,3.273438 c 2.980468,0 5.402343,2.199219 5.402343,4.910156 0,2.707031 -2.421875,4.90625 -5.402343,4.90625 C 8.417969,17.453125 6,15.253906 6,12.546875 6,9.835938 8.417969,7.636719 11.398438,7.636719 z"
     style="fill:#353535;fill-rule:evenodd;fill-opacity:1" />
  <path
     style="font-size:medium;font-style:normal;font-variant:normal;font-weight:normal;font-stretch:normal;text-indent:0;text-align:start;text-decoration:none;line-height:normal;letter-spacing:normal;word-spacing:normal;text-transform:none;direction:ltr;block-progression:tb;writing-mode:lr-tb;text-anchor:start;baseline-shift:baseline;color:#000000;fill:#353535;fill-opacity:1;stroke:none;stroke-width:1;marker:none;visibility:visible;display:inline;overflow:visible;enable-background:accumulate;font-family:Sans;-inkscape-font-specification:Sans"
     d="M 11.2875,9.272735 A 0.60006,0.54550955 0 0 0 10.8,9.81819 l 0,2.727275 a 0.60006,0.54550955 0 0 0 0.6,0.545455 l 2.1,0 a 0.60006,0.54550955 0 1 0 0,-1.09091 l -1.5,0 0,-2.18182 A 0.60006,0.54550955 0 0 0 11.2875,9.272735 z"
     id="path3251"
     inkscape:connector-curvature="0" />
</svg>

<svg width="24" xmlns="http://www.w3.org/2000/svg" height="24" viewBox="0 0 24 24" xmlns:xlink="http://www.w3.org/1999/xlink">
<path style="stroke-opacity:.302;fill:none;stroke:#000;stroke-linejoin:round;stroke-linecap:round" d="M 11.263021 12.500326 L 9.498698 12.500326 L 9.498698 9.997396 " transform="scale(1.2 1.09091)"/>
<g style="fill-rule:evenodd">
<path style="fill:#000;fill-opacity:.302" d="M 11.398438 5.453125 C 6.433594 5.453125 2.398438 9.121094 2.398438 13.636719 C 2.398438 18.152344 6.433594 21.816406 11.398438 21.816406 C 13.757812 21.816406 15.90625 20.988281 17.511719 19.636719 L 24 19.636719 L 19.988281 15.988281 C 20.238281 15.238281 20.398438 14.460938 20.398438 13.636719 C 20.398438 9.121094 16.367188 5.453125 11.398438 5.453125 Z M 11.398438 8.726562 C 14.378906 8.726562 16.800781 10.925781 16.800781 13.636719 C 16.800781 16.347656 14.378906 18.546875 11.398438 18.546875 C 8.417969 18.546875 6 16.347656 6 13.636719 C 6 10.925781 8.417969 8.726562 11.398438 8.726562 Z "/>
<path style="fill:#353535" d="M 11.398438 4.363281 C 6.433594 4.363281 2.398438 8.027344 2.398438 12.546875 C 2.398438 17.0625 6.433594 20.726562 11.398438 20.726562 C 13.757812 20.726562 15.90625 19.894531 17.511719 18.546875 L 24 18.546875 L 19.988281 14.898438 C 20.238281 14.148438 20.398438 13.367188 20.398438 12.546875 C 20.398438 8.027344 16.367188 4.363281 11.398438 4.363281 Z M 11.398438 7.636719 C 14.378906 7.636719 16.800781 9.835938 16.800781 12.546875 C 16.800781 15.253906 14.378906 17.453125 11.398438 17.453125 C 8.417969 17.453125 6 15.253906 6 12.546875 C 6 9.835938 8.417969 7.636719 11.398438 7.636719 Z "/>
</g>
<path style="fill:none;stroke:#353535;stroke-linejoin:round;stroke-linecap:round" d="M 11.263021 11.497721 L 9.498698 11.497721 L 9.498698 8.998372 " transform="scale(1.2 1.09091)"/>
</svg>
